!!!!SEGMENT: pl-sa--39-a-i-39--002_lampugnani-giovanni-battista--lauda-sion-salvatorem.krn
!!!cenid: 17xx:613
!!!COM: Lampugnani, Giovanni Battista
!!!COM-rismID: pe30001863
!!!CDT: ~1709-1786/06/02
!!!CNT: Italian
!!!OTL: Lauda Sion salvatorem
!!!PDT:
!!!AGN: Sacred
!!!YEC: Copyright 2022 Narodowy Instytut Fryderyka Chopina (https://polishscores.org)
!!!YEM: License CC-BY-4.0 (https://creativecommons.org/licenses/by/4.0)
!!!SMS-siglum: PL-SA
!!!SMS-shelfmark: 39/A I 39
!!!SMS-shelfwork: 002 W
!!!SMS-variant:
!!!SMS-altvar:
!!!NIFC-rismSourceID: 1001039775
!!!NIFC-rismChildID: 1001039775
!!!NIFC-islandoraID: none
!!!URL-pdf-islandora:
!!!URL-scan: https://bc.bdsandomierz.pl/dlibra/publication/1285/edition/1253/content @EN{Scan in the Sandomierz Diocese Digital Library} @PL{Skany w portalu Cyfrowa Biblioteka Diecezjalna w Sandomierzu}
!!!IIIF:
!!!ONB-nifc: UWAGA: w metadanych BD Sandomierz błąd dot. kompozytora i tytułu utworu
!!!AIN: 1 organ 1 viola 2 violn 1 vox
!!!key:
**kern	**dynam	**kern	**dynam	**kern	**dynam	**kern	**dynam	**kern	**text
*	*	*group1	*	*group1	*	*group1	*	*	*
*part5	*	*part4	*	*part3	*	*part2	*	*part1	*
*staff5	*	*staff4	*	*staff3	*	*staff2	*	*staff1	*
*Iorgan	*	*Iviola	*	*Ivioln	*	*Ivioln	*	*Ivox	*
*I"Organo.	*	*I"Alto Viola.	*	*I"Violino Secondo.	*	*I"Violino Primo.	*	*I"Canto Solo.	*
*I'org	*	*I'a-vla	*	*I'vl 2	*	*I'vl 1	*	*I'S solo	*
*clefF4	*	*clefC3	*	*clefG2	*	*clefG2	*	*clefC1	*
*k[f#c#g#]	*	*k[f#c#g#]	*	*k[f#c#g#]	*	*k[f#c#g#]	*	*k[f#c#g#]	*
*E:	*	*E:	*	*E:	*	*E:	*	*E:	*
*M3/8	*	*M3/8	*	*M3/8	*	*M3/8	*	*M3/8	*
=1	=1	=1	=1	=1	=1	=1	=1	=1	=1
!	!	!	!	!	!	!	!	!LO:TX:a:t=P:problem=kolejność krzyżyków f# cc# g#	!
!	!	!LO:TX:a:t=Lenta.	!	!	!	!LO:TX:a:t=Lente.	!	!LO:TX:a:t=Lente.	!
!LO:TX:a:B:t=Lente .II.	!	!LO:TX:a:t=II.da.	!	!LO:TX:a:t=II.da Lento.	!	!LO:TX:a:B:t=II.da	!	!LO:TX:a:B:t=II.da	!
!	!	!	!	!	!	!	!	!LO:N:vis=00	!
8E\L	.	8.g#\L	.	8.b\L	.	8.b\L	.	1.r	.
8E\	.	.	.	.	.	.	.	.	.
.	.	16a\K	.	16cc#\K	.	16cc#\K	.	.	.
8E\J	.	8g#\J	.	8b\J	.	8b\J	.	.	.
=2	=2	=2	=2	=2	=2	=2	=2	=2	=2
8A\L	.	8e\L	.	8cc#\	.	8cc#\	.	.	.
8F#\	.	8a\	.	4dd#X\	.	4dd#X\	.	.	.
8BB\J	.	8f#\J	.	.	.	.	.	.	.
=3	=3	=3	=3	=3	=3	=3	=3	=3	=3
4E\	.	4g#\	.	8ee\L	.	8ee\L	.	.	.
.	.	.	.	8b\	.	8b\	.	.	.
8AA/	.	8e\	.	8cc#\J	.	8cc#\J	.	.	.
=4	=4	=4	=4	=4	=4	=4	=4	=4	=4
.	.	.	.	8qqcc#/	.	8qb/	.	.	.
8F#\L	.	8d#X\L	.	4a/	.	4a/	.	.	.
8D#X\	.	8f#\	.	.	.	.	.	.	.
8E\J	.	8e\J	.	8g#/	.	8g#/	.	.	.
=5	=5	=5	=5	=5	=5	=5	=5	=5	=5
!	!	!	!	!	!	!	!	!LO:N:vis=00	!
4AA/	.	8e\	.	8cc#\L	.	8cc#\L	.	1.r	.
.	.	4c#\	.	8ff#\	.	8ff#\	.	.	.
8r	.	.	.	8ee\J	.	8ee\J	.	.	.
=6	=6	=6	=6	=6	=6	=6	=6	=6	=6
8BB\L	.	8f#\L	.	16dd#X\LL	.	16dd#X\LL	.	.	.
.	.	.	.	32ee\L	.	32ee\L	.	.	.
.	.	.	.	32ff#\JJJ	.	32ff#\JJJ	.	.	.
.	.	.	.	.	.	8qff#/	.	.	.
8G#\	.	8b\	.	4ee\	.	4ee\	.	.	.
8F#\J	.	8a\J	.	.	.	.	.	.	.
=7	=7	=7	=7	=7	=7	=7	=7	=7	=7
8E\L	.	16e\LL	.	16g#/LL	.	16g#/LL	.	.	.
.	.	16g#\J	.	16b/JJ	.	16b/JJ	.	.	.
8E\	.	8g#t\	.	8bT\L	.	8bT\L	.	.	.
8E\J	.	8g#t\J	.	8bT\J	.	8bT\J	.	.	.
=8	=8	=8	=8	=8	=8	=8	=8	=8	=8
4D#X\	.	4.f#\	.	32b\LLL	.	(32b\LLL	.	.	.
.	.	.	.	(32cc#\	.	32cc#\	.	.	.
.	.	.	.	32dd#X\)	.	32dd#X\)	.	.	.
.	.	.	.	32ee\JJJ	.	32ee\JJJ	.	.	.
.	.	.	.	32ff#\LLL	.	32ff#\LLL	.	.	.
.	.	.	.	(32ee\	.	(32ee\	.	.	.
.	.	.	.	32dd#\)	.	32dd#\)	.	.	.
.	.	.	.	32cc#\JJJ	.	32cc#\JJJ	.	.	.
8r	.	.	.	32b/LLL	.	32b/LLL	.	.	.
.	.	.	.	(32a/	.	(32a/	.	.	.
.	.	.	.	32g#/)	.	32g#/	.	.	.
.	.	.	.	32f#/JJJ	.	32f#/JJJ)	.	.	.
=9	=9	=9	=9	=9	=9	=9	=9	=9	=9
!	!	!	!	!	!	!	!	!LO:N:vis=00	!
8E\L	.	16e\LL	.	16g#/LL	.	16g#/LL	.	1.r	.
.	.	16g#\J	.	16b/JJ	.	16b/JJ	.	.	.
8E\	.	8g#t\	.	8bT\L	.	8bT\L	.	.	.
8E\J	.	8g#t\J	.	8bT\J	.	8bT\J	.	.	.
=10	=10	=10	=10	=10	=10	=10	=10	=10	=10
4D#X\	.	4.f#\	.	(32b\LLL	.	32b\LLL	.	.	.
.	.	.	.	32cc#\	.	(32cc#\	.	.	.
.	.	.	.	32dd#X\)	.	32dd#X\)	.	.	.
.	.	.	.	32ee\JJJ	.	32ee\JJJ	.	.	.
.	.	.	.	32ff#\LLL	.	32ff#\LLL	.	.	.
.	.	.	.	(32ee\	.	(32ee\	.	.	.
.	.	.	.	32dd#\	.	32dd#\	.	.	.
.	.	.	.	32cc#\JJJ)	.	32cc#\JJJ)	.	.	.
8r	.	.	.	32b/LLL	.	32b/LLL	.	.	.
.	.	.	.	(32a/	.	(32a/	.	.	.
.	.	.	.	32g#/)	.	32g#/	.	.	.
.	.	.	.	32f#/JJJ	.	32f#/JJJ)	.	.	.
=11	=11	=11	=11	=11	=11	=11	=11	=11	=11
!	!	!	!	!	!	!LO:TX:a:t=P:problem=mixed beam	!	!	!
8E/L	.	8B/	.	8g#\L	.	8g#/L	.	.	.
8AA/	.	4c#\	.	8ff#\	.	8ff#\	.	.	.
8AA/J	.	.	.	8ee\J	.	8ee\J	.	.	.
!LO:LB:g=original	!	!	!	!	!	!	!	!	!
=12	=12	=12	=12	=12	=12	=12	=12	=12	=12
8BB/L	.	8B/L	.	24dd#X\LL	.	24dd#X\LL	.	.	.
.	.	.	.	24cc#\	.	24cc#\	.	.	.
.	.	.	.	24b\J	.	24b\JJ	.	.	.
8BB/J	.	8B/J	.	8b\J	.	8b\	.	.	.
8r	.	8r	.	16r	.	16r	.	.	.
.	.	.	.	16b\	.	16b\	.	.	.
=13	=13	=13	=13	=13	=13	=13	=13	=13	=13
!LO:N:vis=1	!	!LO:N:vis=1	!	!	!	!	!	!LO:N:vis=00	!
4.r	.	4.r	.	8r	.	8ee\	.	1.r	.
.	.	.	.	8r	.	4aa\	.	.	.
.	.	.	.	16r	.	.	.	.	.
.	.	.	.	16ee\	.	.	.	.	.
!	!	!	!	!LO:LB:g=original	!	!	!	!	!
=14	=14	=14	=14	=14	=14	=14	=14	=14	=14
.	.	.	.	.	.	8qaa/	.	.	.
8r	.	8r	.	8ee\	.	8gg#\	.	.	.
8r	.	8r	.	4aa\	.	4ccc#\	.	.	.
8AA/	.	16r	.	.	.	.	.	.	.
.	.	16A/	.	.	.	.	.	.	.
!	!	!	!	!	!	!LO:LB:g=original	!	!	!
=15	=15	=15	=15	=15	=15	=15	=15	=15	=15
8E\	.	8e\	.	8gg#\L	.	8bb\L	.	.	.
4EE/	.	4E/	.	8ff#\	.	8aa\	.	.	.
.	.	.	.	8ee\J	.	8gg#\J	.	.	.
=16	=16	=16	=16	=16	=16	=16	=16	=16	=16
!LO:TX:a:t=P:problem=mixed beam	!	!LO:TX:a:t=P:problem=mixed beam	!	!	!	!	!	!	!
8AA/L	.	8A/L	.	8ff#\L	.	8aa\L	.	.	.
8B\	.	8b\	.	8ee\	.	8gg#\	.	.	.
8BB/J	.	8B/J	.	8dd#X\J	.	8ff#\J	.	.	.
=17	=17	=17	=17	=17	=17	=17	=17	=17	=17
!	!	!	!	!LO:TX:a:t=P:problem=mixed beam	!	!LO:TX:a:t=P:problem=mixed beam	!	!	!
!	!	!	!	!	!	!	!	!LO:N:vis=00	!
4E\	.	4e\	.	8ee\L	.	8eeL	.	1.r	.
.	.	.	.	8e/J	.	8e/J	.	.	.
8r	.	8r	.	8r	.	16r	.	.	.
!	!	!	!	!	!	!	!LO:DY:t=piano.	!	!
.	.	.	.	.	.	16B/	p	.	.
=18	=18	=18	=18	=18	=18	=18	=18	=18	=18
!LO:N:vis=1	!	!LO:N:vis=1	!	!	!	!	!	!	!
4.r	.	4.r	.	8r	.	8e/	.	.	.
.	.	.	.	8r	.	4a/	.	.	.
.	.	.	.	16r	.	.	.	.	.
!	!	!	!	!	!LO:DY:a:t=pia&colon;	!	!	!	!
.	.	.	.	16B/	p	.	.	.	.
=19	=19	=19	=19	=19	=19	=19	=19	=19	=19
.	.	.	.	.	.	8qa/	.	.	.
8r	.	8r	.	8e/	.	8g#/	.	.	.
8r	.	8r	.	4cc#\	.	4cc#\	.	.	.
8AA/	.	16r	.	.	.	.	.	.	.
.	.	16A/	.	.	.	.	.	.	.
=20	=20	=20	=20	=20	=20	=20	=20	=20	=20
8E\	.	8e\	.	8g#/L	.	8b/L	.	.	.
4EE/	.	4E/	.	8f#/	.	8a/	.	.	.
.	.	.	.	8e/J	.	8g#/J	.	.	.
!	!	!LO:LB:g=original	!	!	!	!	!	!	!
=21	=21	=21	=21	=21	=21	=21	=21	=21	=21
!LO:TX:a:t=P:problem=mixed beam	!	!LO:TX:a:t=P:problem=mixed beam	!	!	!	!LO:N:vis=0	!	!	!
8AA/L	.	8A/L	.	8f#/L	.	8a/L	.	2.r	.
8B\	.	8b\	.	8e/	.	8g#/	.	.	.
8BB/J	.	8B/J	.	8d#X/J	.	8f#/J	.	.	.
=22	=22	=22	=22	=22	=22	=22	=22	=22	=22
!LO:TX:a:t=P:problem=mixed beam	!	!LO:TX:a:t=P:problem=mixed beam	!	!	!	!	!	!	!
8E\L	.	8e\L	.	16.gg#\LL	.	16gg#\LL	.	.	.
!	!	!	!	!	!	!	!LO:DY:b:t=forte.	!	!
.	.	.	.	.	.	32ff#\L	f	.	.
!	!	!	!	!LO:N:vis=32ff#	!	!LO:N:vis=32ff#	!	!	!
!	!	!	!	!	!LO:DY:a:t=fort&colon;	!	!	!	!
.	.	.	.	64ff#\LL	f	32ee\JJJ	.	.	.
!	!	!	!	!LO:N:vis=32ee	!	!	!	!	!
.	.	.	.	64ee\JJJJ	.	.	.	.	.
8B\	.	8b\	.	8ee\L	.	8gg#\L	.	.	.
8BB/J	.	8B/J	.	8dd#X\J	.	8ff#\J	.	.	.
=23	=23	=23	=23	=23	=23	=23	=23	=23	=23
!	!	!	!	!LO:TX:a:t=P:problem=mixed beam	!	!	!	!	!
4E\	.	4e\	.	8ee\L	.	8ee\	.	4.r	.
.	.	.	.	8e/J	.	4e/	.	.	.
8r	.	8r	.	8r	.	.	.	.	.
=24	=24	=24	=24	=24	=24	=24	=24	=24	=24
!	!LO:DY:a	!	!LO:DY:a	!	!LO:DY:a	!	!LO:DY:a:t=piano.	!	!
4.E\	p	4e\	p	8.g#/L	p	8.b\L	p	8.b\L	Lau-
.	.	.	.	16a/K	.	16cc#\K	.	16cc#\Jk	.
.	.	8r	.	8g#/J	.	8b\J	.	8b\	-da
!LO:LB:g=original	!	!	!	!	!	!	!	!	!
=25	=25	=25	=25	=25	=25	=25	=25	=25	=25
8A\L	.	8e\L	.	4.a/	.	8cc#\	.	8cc#\	sy-
8F#\	.	8f#\	.	.	.	4dd#X\	.	4dd#X\	-on
8BB\J	.	8f#\J	.	.	.	.	.	.	.
=26	=26	=26	=26	=26	=26	=26	=26	=26	=26
4E\	.	8g#\L	.	8b/L	.	8ee\L	.	8ee\L	Sal-
.	.	8f#\	.	8g#/	.	8b\	.	8b\J	.
8AA/	.	8e\J	.	8a/J	.	8cc#\J	.	8cc#\	-va-
=27	=27	=27	=27	=27	=27	=27	=27	=27	=27
.	.	.	.	8qb/	.	8qb/	.	8qb/	.
8F#\L	.	8d#X\L	.	4a/	.	4a/	.	4a\	-to-
8D#X\	.	8f#\	.	.	.	.	.	.	.
8E\J	.	8B\J	.	8g#/	.	8g#/	.	8g#\	-rem
=28	=28	=28	=28	=28	=28	=28	=28	=28	=28
*	*	*	*	*	*	*	*	*	*ij
4.AA/	.	8A/	.	8cc#\L	.	8cc#\L	.	8cc#\L	Sal-
.	.	4c#\	.	8ff#\	.	8ff#\	.	8ff#\J	.
.	.	.	.	8ee\J	.	8ee\J	.	8ee\	-va-
=29	=29	=29	=29	=29	=29	=29	=29	=29	=29
!LO:TX:a:t=P:problem=mixed beam	!	!LO:TX:a:t=P:problem=mixed beam	!	!	!	!	!	!	!
8BB/L	.	8B/L	.	16dd#X\LL	.	16dd#X\LL	.	16dd#X\LL	-to-
.	.	.	.	32ee\L	.	32ee\L	.	32ee\L	.
.	.	.	.	32ff#\JJ	.	32ff#\JJJ	.	32ff#\JJJ	.
8G#\	.	8b\	.	8ee\J	.	8ee\	.	8ee\	-rem
*	*	*	*	*	*	*	*	*	*Xij
8F#\J	.	8a\J	.	8r	.	8r	.	8r	.
=30	=30	=30	=30	=30	=30	=30	=30	=30	=30
4.E\	.	4.e\	.	8.g#/L	.	8.b\L	.	8.b\L	Lau-
.	.	.	.	16a/K	.	16cc#\K	.	16cc#\Jk	.
.	.	.	.	8g#/J	.	8b\J	.	8b\	-da
=31	=31	=31	=31	=31	=31	=31	=31	=31	=31
8A\L	.	8e\L	.	8a/	.	8cc#\	.	8cc#\	Du-
8F#\	.	8f#\	.	4a/	.	4dd#X\	.	4dd#X\	-cem
!	!	!LO:SIC:v:o=8e\J	!	!	!	!	!	!	!
8BB\J	.	8f#	.	.	.	.	.	.	.
=32	=32	=32	=32	=32	=32	=32	=32	=32	=32
4E\	.	8g#\L	.	8b/L	.	8ee\L	.	8ee\L	et
.	.	8e\	.	8g#/	.	8b\	.	8b\J	.
8AA/	.	8e\J	.	8a/J	.	8cc#\J	.	8cc#\	Pas-
!	!	!	!	!LO:LB:g=original	!	!LO:LB:g=original	!	!	!
=33	=33	=33	=33	=33	=33	=33	=33	=33	=33
.	.	.	.	8qb/	.	8qb/	.	8qb/	.
8F#\L	.	8f#\L	.	4a/	.	4a/	.	4a\	-to-
8D#X\	.	8f#\	.	.	.	.	.	.	.
8E\J	.	8B\J	.	8g#/	.	8g#/	.	8g#\	-rem
=34	=34	=34	=34	=34	=34	=34	=34	=34	=34
4.AA/	.	8A/	.	8cc#\L	.	8cc#\L	.	8cc#\L	et
.	.	4c#\	.	8ff#\	.	8ff#\	.	8ff#\J	.
.	.	.	.	8ee\J	.	8ee\J	.	8ee\	Pas-
=35	=35	=35	=35	=35	=35	=35	=35	=35	=35
*	*	*	*	*Xtuplet	*	*	*	*	*
!	!	!	!	!	!	!	!	!LO:SIC:v:o=24dd\LL	!
8BB/L	.	8B\L	.	24dd#X\LL	.	24dd#X\LL	.	16dd#	-to-
.	.	.	.	24cc#\	.	24cc#\	.	24cc#\	.
.	.	.	.	24b\JJ	.	24b\JJ	.	24b\JJ	.
!	!	!	!	!	!	!	!	!LO:N:vis=4.b	!
8BB/	.	8f#\	.	8b/L	.	8b\L	.	4b\	-rem
!	!	!	!	!LO:SIC:v:o=8g#/J	!	!	!	!	!
8BB/J	.	8f#\J	.	8b	.	8dd#\J	.	.	.
!LO:LB:g=original	!	!	!	!	!	!	!	!	!
=36	=36	=36	=36	=36	=36	=36	=36	=36	=36
*	*	*	*	*	*	*	*	*	*ij
8F#\L	.	8f#\L	.	8.a#X\L	.	8.dd#X\L	.	8b\	et
8F#\	.	8f#\	.	.	.	.	.	16a#X\LL	Pas-
.	.	.	.	16cc#\L	.	16ee\L	.	16ee\JJ	.
8F#\J	.	8f#\J	.	16b\	.	16dd#\	.	16dd#X\LL	-to-
.	.	.	.	16a#\JJ	.	16cc#\JJ	.	16cc#\JJ	.
=37	=37	=37	=37	=37	=37	=37	=37	=37	=37
!	!	!	!	!	!	!	!	!LO:SIC:v:o=8qcc#/	!
.	.	.	.	.	.	.	.	4dd#	.
!	!	!	!	!	!	!	!LO:DY:a	!	!
8BB/L	.	8f#\L	.	16b\LL	.	16dd#X\LL	f	4dd\	-rem
*	*	*	*	*	*	*	*	*	*Xij
.	.	.	.	16ff#\JJ	.	16ff#\JJ	.	.	.
8BB/	.	8d#X\	.	8ff#T\L	.	8ff#T\L	.	.	.
8BB/J	.	8d#\J	.	8ff#T\J	.	8ff#T\J	.	8r	.
=38	=38	=38	=38	=38	=38	=38	=38	=38	=38
8AA#X/L	.	8c#\L	.	(32ff#\LLL	.	(32ff#\LLL	.	8ff#\	Lau-
.	.	.	.	32gg#\	.	32gg#\	.	.	.
!	!	!	!	!	!LO:DY:b:t=fort&colon;	!	!	!	!
.	.	.	.	32aa#X\)	f	32aa#X\)	.	.	.
.	.	.	.	32bb\JJJ	.	32bb\JJJ	.	.	.
8AA#/	.	8c#\	.	32ccc#\LLL	.	32ccc#\LLL	.	8cc#\	-da
.	.	.	.	(32bb\	.	(32bb\	.	.	.
.	.	.	.	32aa#\	.	32aa#\)	.	.	.
.	.	.	.	32gg#\JJJ)	.	32gg#\JJJ	.	.	.
8AA#/J	.	8c#\J	.	32ff#\LLL	.	32ff#\LLL	.	16r	.
.	.	.	.	(32ee\	.	(32ee\	.	.	.
*	*	*	*	*	*	*	*	*	*ij
.	.	.	.	32dd#X\	.	32dd#X\	.	16ee\	Lau-
.	.	.	.	32cc#\JJJ)	.	32cc#\JJJ)	.	.	.
=39	=39	=39	=39	=39	=39	=39	=39	=39	=39
!	!	!	!	!LO:SIC:v:o=16dd\LL	!	!	!LO:DY:a	!	!
8BB/L	.	8B\L	.	16dd#	.	16dd#X\LL	p	24dd#X\LL	.
.	.	.	.	.	.	.	.	24cc#\	.
.	.	.	.	16ff#\JJ	.	16ff#\JJ	.	.	.
.	.	.	.	.	.	.	.	24b\JJ	.
8BB/	.	8d#X\	.	8ff#T\L	.	8ff#T\L	.	8b\	-da
*	*	*	*	*	*	*	*	*	*Xij
8BB/J	.	8d#\J	.	8ff#T\J	.	8ff#T\J	.	8r	.
!	!	!LO:LB:g=original	!	!	!	!	!	!	!
=40	=40	=40	=40	=40	=40	=40	=40	=40	=40
8AA#X/L	.	8c#\L	.	(32ff#\LLL	.	32ff#\LLL	.	8ff#\	Du-
.	.	.	.	32gg#\	.	(32gg#\	.	.	.
.	.	.	.	32aa#X\)	.	32aa#X\)	.	.	.
.	.	.	.	32bb\JJJ	.	32bb\JJJ	.	.	.
!	!	!	!	!	!	!	!	!LO:LB:g=original	!
8AA#/	.	8c#\	.	32ccc#\LLL	.	32ccc#\LLL	.	16cc#\LL	-cem
.	.	.	.	(32bb\	.	(32bb\	.	.	.
.	.	.	.	32aa#\	.	32aa#\	.	16ee\JJ	.
.	.	.	.	32gg#\JJJ)	.	32gg#\JJJ)	.	.	.
8AA#/J	.	8c#\J	.	32ff#\LLL	.	32ff#\LLL	.	16dd#X\	et
.	.	.	.	(32ee\	.	(32ee\	.	.	.
.	.	.	.	32dd#X\	.	32dd#X\	.	16cc#\	pas-
.	.	.	.	32cc#\JJJ)	.	32cc#\JJJ)	.	.	.
=41	=41	=41	=41	=41	=41	=41	=41	=41	=41
!	!	!	!	!	!	!	!	!LO:SIC:v:o=16dd\LL	!
8BB/L	.	8f#\L	.	8b\L	.	8dd#X\L	.	16dd#	-to-
.	.	.	.	.	.	.	.	16cc#\JJ	.
8BB/	.	8f#\	.	8b\	.	8dd#\	.	8b\	-rem,
8BB/J	.	8f#\J	.	8b\J	.	8dd#\J	.	16r	.
.	.	.	.	.	.	.	.	16f#/	in
=42	=42	=42	=42	=42	=42	=42	=42	=42	=42
[<4.E\	.	8g#\	.	4.g#/	.	8b\L	.	8g#\L	hym-
.	.	4B/	.	.	.	8ee\	.	8ee\J	.
!	!	!	!	!	!	!LO:SIC:v:o=8dd\J	!	!	!
.	.	.	.	.	.	8dd#	.	8dd#X\	-nis
=43	=43	=43	=43	=43	=43	=43	=43	=43	=43
4.E\]	.	4e\	.	8g#/L	.	16cc#\LL	.	16cc#\LL	et
!	!	!	!	!	!	!	!	!LO:SIC:v:o=16dd\JJ	!
.	.	.	.	.	.	16dd#X\J	.	16dd#	.
.	.	.	.	8g#/	.	8cc#\	.	8cc#\L	Can-
.	.	8e\	.	8g#/J	.	8b\J	.	8b\J	.
=44	=44	=44	=44	=44	=44	=44	=44	=44	=44
8F#\L	.	8c#\L	.	16f#/LL	.	16a#X\LL	.	16a#X\	.
.	.	.	.	16a#X/JJ	.	16cc#\J	.	16g#\	-ti-
8F#\	.	8f#\	.	8a#/	.	8cc#\J	.	8f#/	-cis,
8F#\J	.	8f#\J	.	8r	.	16r	.	16r	.
.	.	.	.	.	.	16f#/	.	16f#/	in
=45	=45	=45	=45	=45	=45	=45	=45	=45	=45
!	!	!	!	!	!	!	!LO:DY:a:t=fort&colon;	!	!
8r	.	8r	.	8r	.	8b\	f	8b\	hym-
8r	.	8r	.	8r	.	4ee\	.	4ee\	-nis
8F#\	.	16r	.	16r	.	.	.	.	.
.	.	16f#\	.	16a#X/	.	.	.	.	.
=46	=46	=46	=46	=46	=46	=46	=46	=46	=46
!	!	!	!	!	!LO:DY:b:rj:t=pia&colon;	!	!	!	!
8BB/L	.	8B\L	.	8b/L	p	8dd#X\L	p	8dd#X\L	et
8C#/	.	8c#\	.	8a#X/	.	8cc#\	.	8cc#\	.
8D#X/J	.	8d#X\J	.	8f#/J	.	8b\J	.	8b\J	.
!LO:LB:g=original	!	!	!	!	!	!LO:LB:g=original	!	!	!
=47	=47	=47	=47	=47	=47	=47	=47	=47	=47
!LO:TX:a:t=P:problem=mixed beam	!	!LO:TX:a:t=P:problem=mixed beam	!	!	!	!	!	!	!
8E\L	.	8e\L	.	16g#\LL	.	16b\LL	.	16b\LL	Can-
.	.	.	.	16cc#\JJ	.	16cc#\JJ	.	16cc#\JJ	.
!	!	!	!	!	!	!	!	!LO:SIC:v:o=8.ddT\	!
8F#\	.	8f#\	.	4cc#t\	.	4cc#t\	.	8.cc#	.
8FF#/J	.	8F#/J	.	.	.	.	.	.	.
!	!	!	!	!	!	!	!	!LO:SIC:v:o=16dd\	!
.	.	.	.	.	.	.	.	16cc#	-ti-
!	!	!	!	!LO:LB:g=original	!	!	!	!	!
=48	=48	=48	=48	=48	=48	=48	=48	=48	=48
!	!LO:DY:a:t=forte.	!	!	!	!	!	!LO:DY:a	!	!
8BB/L	f	8f#\L	.	16b\LL	.	16b\LL	f	4b\	-cis,
.	.	.	.	16ff#\JJ	.	16ff#\JJ	.	.	.
8BB/	.	8d#X\	.	8ff#T\L	.	8ff#T\L	.	.	.
8BB/J	.	8d#\J	.	8ff#T\J	.	8ff#T\J	.	8r	.
=49	=49	=49	=49	=49	=49	=49	=49	=49	=49
!	!	!	!	!	!	!	!	!LO:N:vis=00	!
8AA#X/L	.	8c#\L	.	(32ff#\LLL	.	(32ff#\LLL	.	1.r	.
.	.	.	.	32gg#\	.	32gg#\	.	.	.
.	.	.	.	32aa#X\)	.	32aa#X\)	.	.	.
.	.	.	.	32bb\JJJ	.	32bb\JJJ	.	.	.
8AA#/	.	8c#\	.	32ccc#\LLL	.	32ccc#\LLL	.	.	.
.	.	.	.	(32bb\	.	(32bb\	.	.	.
.	.	.	.	32aa#\	.	32aa#\)	.	.	.
.	.	.	.	32gg#\JJJ)	.	32gg#\JJJ	.	.	.
8AA#/J	.	8c#\J	.	32ff#\LLL	.	32ff#\LLL	.	.	.
.	.	.	.	(32ee\	.	(32ee\	.	.	.
.	.	.	.	32dd#X\	.	32dd#X\	.	.	.
.	.	.	.	32cc#\JJJ)	.	32cc#\JJJ)	.	.	.
=50	=50	=50	=50	=50	=50	=50	=50	=50	=50
!	!	!	!	!LO:SIC:v:o=8dd\L	!	!	!	!	!
8BB/	.	8f#\	.	8dd#	.	8dd#X\L	.	.	.
4E\	.	4g#\	.	8ccc#\	.	8ccc#\	.	.	.
.	.	.	.	8bb\J	.	8bb\J	.	.	.
=51	=51	=51	=51	=51	=51	=51	=51	=51	=51
!LO:TX:a:t=P:problem=mixed beam	!	!LO:TX:a:t=P:problem=mixed beam	!	!	!	!	!	!	!
8F#\L	.	8f#\L	.	24aa#X\LL	.	24aa#X\LL	.	.	.
.	.	.	.	24gg#\	.	24gg#\	.	.	.
.	.	.	.	24ff#\JJ	.	24ff#\JJ	.	.	.
8FF#/J	.	8F#/J	.	8ff#\	.	8ff#\	.	.	.
8r	.	8r	.	16r	.	16r	.	.	.
!	!	!	!	!.	!LO:DY:a:t=piano.	!	!LO:DY:a:t=pia&colon;	!	!
.	.	.	.	16f#/	p	16f#/	p	.	.
=52	=52	=52	=52	=52	=52	=52	=52	=52	=52
!LO:N:vis=1	!	!LO:N:vis=1	!	!	!	!	!	!	!
4.r	.	4.r	.	8r	.	8b\	.	.	.
.	.	.	.	8r	.	4ee\	.	.	.
.	.	.	.	16r	.	.	.	.	.
.	.	.	.	16f#/	.	.	.	.	.
=53	=53	=53	=53	=53	=53	=53	=53	=53	=53
.	.	.	.	.	.	8qee/	.	.	.
!	!	!	!	!	!	!	!LO:DY:t=for&colon;	!LO:N:vis=00	!
8r	.	8r	.	8b\	.	8dd#X\	f	1.r	.
8r	.	8r	.	4ee\	.	4gg#\	.	.	.
8E\	.	16r	.	.	.	.	.	.	.
.	.	16e\	.	.	.	.	.	.	.
=54	=54	=54	=54	=54	=54	=54	=54	=54	=54
8BB/L	.	8B\L	.	8dd#X\L	.	8ff#\L	.	.	.
8C#/	.	8c#\	.	8cc#\	.	8ee\	.	.	.
!	!	!	!	!	!LO:DY:a:t=for&colon;	!	!	!	!
8D#X/J	.	8d#X\J	.	8b\J	f	8dd#X\J	.	.	.
=55	=55	=55	=55	=55	=55	=55	=55	=55	=55
!LO:TX:a:t=P:problem=mixed beam	!	!LO:TX:a:t=P:problem=mixed beam	!	!	!	!	!	!	!
8G#\L	.	8g#\L	.	8cc#\L	.	8ee\L	.	.	.
!	!	!	!	!	!	!LO:SIC:v:o=8dd\	!	!	!
8F#\	.	8f#\	.	8b\	.	8dd#	.	.	.
8FF#/J	.	8F#/J	.	8a#X\J	.	8cc#\J	.	.	.
=56	=56	=56	=56	=56	=56	=56	=56	=56	=56
4BB/	.	4B/	.	8b\	.	8b\	.	.	.
.	.	.	.	4B/	.	4B/	.	.	.
8r	.	8r	.	.	.	.	.	.	.
!LO:LB:g=original	!	!	!	!	!	!	!	!	!
=57	=57	=57	=57	=57	=57	=57	=57	=57	=57
!.	!LO:DY:b:t=piano.	!	!LO:DY:b:t=pia&colon;	!.	!	!	!LO:DY:a:t=piano.	!	!
4.B\	p	4.B/	p	8.d#X/L	p	8.f#/L	p	8.f#/L	Lau-
.	.	.	.	16e/K	.	16g#/K	.	16g#/Jk	.
.	.	.	.	8d#/J	.	8f#/J	.	8f#/	-da
=58	=58	=58	=58	=58	=58	=58	=58	=58	=58
8E\L	.	8B/L	.	4.e/	.	8g#/	.	8g#\	sy-
8C#\	.	8c#/	.	.	.	4a#X/	.	4a#X\	-on
8F#\J	.	8c#/J	.	.	.	.	.	.	.
!	!	!LO:LB:g=original	!	!	!	!	!	!	!
=59	=59	=59	=59	=59	=59	=59	=59	=59	=59
4.BB/	.	4.B/	.	4.d#X/	.	8b/L	.	8b\L	Sal-
.	.	.	.	.	.	8f#/	.	8f#\J	.
.	.	.	.	.	.	8b/J	.	8b\	-va-
=60	=60	=60	=60	=60	=60	=60	=60	=60	=60
.	.	.	.	.	.	8qb/	.	8qb/	.
8C#\L	.	8c#\L	.	8e/L	.	4an/	.	4an\	-to-
8D#X\	.	8d#X\	.	8f#/	.	.	.	.	.
8E\J	.	8B\J	.	8e/J	.	8g#/	.	8g#\	-rem
=61	=61	=61	=61	=61	=61	=61	=61	=61	=61
*	*	*	*	*	*	*	*	*	*ij
4.AA/	.	8A/	.	8cc#\L	.	8cc#\L	.	8cc#\L	Sal-
.	.	4c#\	.	8ff#\	.	8ff#\	.	8ff#\J	.
.	.	.	.	8ee\J	.	8ee\J	.	8ee\	-va-
=62	=62	=62	=62	=62	=62	=62	=62	=62	=62
!	!	!LO:TX:a:t=P:problem=mixed beam	!	!	!	!	!	!	!
8BB\L	.	8B/L	.	24dd#X\LL	.	16dd#X\LL	.	16dd#X\LL	-to-
.	.	.	.	24ee\	.	.	.	.	.
.	.	.	.	.	.	32ee\L	.	32ee\L	.
.	.	.	.	24ff#\JJ	.	.	.	.	.
.	.	.	.	.	.	32ff#\JJJ	.	32ff#\JJJ	.
8G#\	.	8b\	.	8ee\	.	8ee\	.	8ee\	-rem
*	*	*	*	*	*	*	*	*	*Xij
8F#\J	.	8a\J	.	8r	.	8r	.	8r	.
!	!	!	!	!	!	!LO:LB:g=original	!	!	!
=63	=63	=63	=63	=63	=63	=63	=63	=63	=63
4.E\	.	4.e\	.	8.g#/L	.	8.b\L	.	8.b\L	Lau-
.	.	.	.	16a/K	.	16cc#\K	.	16cc#\Jk	.
.	.	.	.	8g#/J	.	8b\J	.	8b\	-da
=64	=64	=64	=64	=64	=64	=64	=64	=64	=64
8A\L	.	8e\L	.	8a/	.	8cc#\	.	8cc#\	Du-
8F#\	.	8f#\	.	4a/	.	4dd#X\	.	4dd#X\	-cem
8BB\J	.	8f#\J	.	.	.	.	.	.	.
!	!	!	!	!LO:LB:g=original	!	!	!	!LO:LB:g=original	!
=65	=65	=65	=65	=65	=65	=65	=65	=65	=65
4E\	.	8g#\L	.	8b/L	.	8ee\L	.	8ee\L	et
.	.	8e\	.	8g#/	.	8b\	.	8b\J	.
8AA/	.	8e\J	.	8a/J	.	8cc#\J	.	8cc#\	pas-
=66	=66	=66	=66	=66	=66	=66	=66	=66	=66
.	.	.	.	8qb/	.	8qb/	.	8qb/	.
8F#\L	.	8d#X\L	.	4a/	.	4a/	.	4a\	-to-
8D#X\	.	8f#\	.	.	.	.	.	.	.
!	!	!LO:SIC:v:o=8d#\J	!	!	!	!	!	!	!
8E\J	.	8e	.	8g#/	.	8g#/	.	8g#\	-rem
=67	=67	=67	=67	=67	=67	=67	=67	=67	=67
4.AA/	.	8c#\	.	4.cc#\	.	8cc#\L	.	8cc#\L	et
.	.	4a\	.	.	.	8ff#\	.	8ff#\J	.
.	.	.	.	.	.	8ee\J	.	8ee\	pas-
!LO:LB:g=original	!	!	!	!	!	!	!	!	!
=68	=68	=68	=68	=68	=68	=68	=68	=68	=68
*	*	*	*	*tuplet	*	*	*	*	*
8BB/L	.	8f#\L	.	24dd#X\LL	.	24dd#X\LL	.	24dd#X\LL	-to-
.	.	.	.	24cc#\	.	24cc#\	.	24cc#\	.
.	.	.	.	24b\JJ	.	24b\JJ	.	24b\JJ	.
8BB/	.	8f#\	.	8b/L	.	8b\L	.	8b\	-rem,
8BB/J	.	8f#\J	.	8d#X/J	.	8b\J	.	16r	.
.	.	.	.	.	.	.	.	16b\	pas-
=69	=69	=69	=69	=69	=69	=69	=69	=69	=69
8BB/L	.	8d#X\L	.	8.f#/L	.	8.a\L	.	8.a\L	-to-
8BB/	.	8d#\	.	.	.	.	.	.	.
.	.	.	.	16a/L	.	16cc#\L	.	16cc#\Jk	.
8BB/J	.	8d#\J	.	16g#/	.	16b\	.	16b\LL	.
.	.	.	.	16f#/JJ	.	16a\JJ	.	16a\JJ	.
=70	=70	=70	=70	=70	=70	=70	=70	=70	=70
.	.	.	.	.	.	.	.	8qa/	.
!	!	!	!	!	!	!	!LO:DY:b:t=for&colon;	!	!
8E\L	.	8B\L	.	16e/LL	.	16g#/LL	f	4g#\	-rem,
.	.	.	.	16g#/JJ	.	16b/JJ	.	.	.
8E\	.	8e\	.	8g#t/L	.	8bT\L	.	.	.
8E\J	.	8e\J	.	8g#t/J	.	8bT\J	.	8r	.
=71	=71	=71	=71	=71	=71	=71	=71	=71	=71
8D#X\L	.	8f#\L	.	32b\LLL	.	32b\LLL	.	8ff#\	Lau-
.	.	.	.	(32cc#\	.	(32cc#\	.	.	.
.	.	.	.	32dd#X\)	.	32dd#X\)	.	.	.
.	.	.	.	32ee\JJJ	.	32ee\JJJ	.	.	.
8D#\	.	8f#\	.	32ff#\LLL	.	32ff#\LLL	.	8b\	-da
.	.	.	.	(32ee\	.	(32ee\	.	.	.
.	.	.	.	32dd#\	.	32dd#\	.	.	.
.	.	.	.	32cc#\JJJ)	.	32cc#\JJJ)	.	.	.
8D#\J	.	8f#\J	.	32b/LLL	.	32b/LLL	.	16r	.
.	.	.	.	(32a/	.	(32a/	.	.	.
.	.	.	.	32g#/)	.	32g#/	.	16a\	Sy-
.	.	.	.	32f#/JJJ	.	32f#/JJJ)	.	.	.
=72	=72	=72	=72	=72	=72	=72	=72	=72	=72
!	!	!	!	!	!	!	!	!LO:N:vis=8.g#	!
8E\L	.	8B\L	.	16f#/LL	.	16f#/LL	.	16g#\LL	.
.	.	.	.	16g#/JJ	.	16g#/JJ	.	16a\JJ	.
!	!	!	!	!	!	!	!LO:DY:b:t=pia&colon;	!	!
8E\	.	8e\	.	8g#/L	.	8g#t/L	p	8b\	-on
8E\J	.	8e\J	.	8g#/J	.	8g#t/J	.	16r	.
.	.	.	.	.	.	.	.	16b\	et
=73	=73	=73	=73	=73	=73	=73	=73	=73	=73
8D#X\L	.	8f#\L	.	32b\LLL	.	32b\LLL	.	8ff#\	pas-
.	.	.	.	(32cc#\	.	(32cc#\	.	.	.
.	.	.	.	32dd#X\)	.	32dd#X\	.	.	.
.	.	.	.	32ee\JJJ	.	32ee\JJJ)	.	.	.
8D#\	.	8f#\	.	32ff#\LLL	.	32ff#\LLL	.	16b\LL	-to-
.	.	.	.	32ee\	.	(32ee\	.	.	.
.	.	.	.	(32dd#\	.	32dd#\	.	16cc#\	.
.	.	.	.	32cc#\JJJ)	.	32cc#\JJJ)	.	.	.
8D#\J	.	8f#\J	.	32b/LLL	.	32b/LLL	.	16b\	.
.	.	.	.	(32a/	.	(32a/	.	.	.
.	.	.	.	32g#/)	.	32g#/)	.	16a\JJ	.
.	.	.	.	32f#/JJJ	.	32f#/JJJ	.	.	.
=74	=74	=74	=74	=74	=74	=74	=74	=74	=74
8E\L	.	8B\L	.	8e/L	.	8g#\L	.	16g#/LL	.
.	.	.	.	.	.	.	.	16f#/JJ	.
8E\	.	8e\	.	8g#/	.	8b\	.	8e/	-rem
8E\J	.	8g#\J	.	8b/J	.	8ee\J	.	8b\	in
=75	=75	=75	=75	=75	=75	=75	=75	=75	=75
8AA/L	.	8e\	.	8a/	.	8cc#\L	.	16b\LL	hym-
.	.	.	.	.	.	.	.	16a\JJ	.
8AA/	.	4a\	.	4cc#\	.	8ff#\	.	8ff#\	-nis
8AA/J	.	.	.	.	.	8ee\J	.	8ee\	et
=76	=76	=76	=76	=76	=76	=76	=76	=76	=76
8BB/L	.	8f#\L	.	8b/L	.	24dd#X\LL	.	16dd#X\	Can-
.	.	.	.	.	.	24cc#\	.	.	.
.	.	.	.	.	.	.	.	16cc#\	-ti-
.	.	.	.	.	.	24b\J	.	.	.
8BB/J	.	8d#X\J	.	8f#/J	.	8b\J	.	8b\	-cis
8r	.	8r	.	8r	.	16r	.	16r	.
.	.	.	.	.	.	16b\	.	16b\	in
=77	=77	=77	=77	=77	=77	=77	=77	=77	=77
!LO:N:vis=1	!	!LO:N:vis=1	!	!	!LO:DY:a:t=fort.	!	!LO:DY:b:t=for&colon;	!	!
4.r	.	4.r	.	8r	f	8ee\	f	8e/	hym-
.	.	.	.	8r	.	4aa\	.	4a\	-nis
.	.	.	.	16r	.	.	.	.	.
.	.	.	.	16b\	.	.	.	.	.
!LO:LB:g=original	!	!LO:LB:g=original	!	!	!	!LO:LB:g=original	!	!	!
=78	=78	=78	=78	=78	=78	=78	=78	=78	=78
.	.	.	.	.	.	.	.	8qa/	.
8r	.	8r	.	8ee\	.	8ggn\	.	(8g#\	et
8r	.	8r	.	4aa\	.	4ccc#\	.	4cc#\)	.
8AA/	.	16r	.	.	.	.	.	.	.
.	.	16A/	.	.	.	.	.	.	.
=79	=79	=79	=79	=79	=79	=79	=79	=79	=79
!	!	!	!	!	!LO:DY:a	!	!LO:DY:b:t=pia&colon;	!	!
8E\L	.	8e\L	.	8gg#\L	p	8bb\L	p	8b\L	Can-
8F#\	.	8f#\	.	8ff#\	.	8aa\	.	8a\	.
8G#\J	.	8g#\J	.	8ee\J	.	8gg#\J	.	8g#\J	.
!	!	!	!	!	!	!	!	!LO:LB:g=original	!
=80	=80	=80	=80	=80	=80	=80	=80	=80	=80
!	!	!LO:TX:a:t=P:problem=mixed beam	!	!	!	!	!	!	!
8C#/L	.	8cc#\L	.	8ff#\L	.	8aa\L	.	8a\L	.
8BB/	.	8b\	.	8ee\	.	8gg#\	.	8g#\J	.
8BB/J	.	8B/J	.	8dd#X\J	.	8ff#\J	.	8f#/	-ti-
!	!	!	!	!LO:LB:g=original	!	!	!	!	!
=81	=81	=81	=81	=81	=81	=81	=81	=81	=81
!	!	!	!	!LO:TX:a:t=P:problem=mixed beam	!	!LO:TX:a:t=P:problem=mixed beam	!	!	!
4E\	.	4e\	.	8ee\L	.	8ee\L	.	4e/	-cis
.	.	.	.	8e/J	.	8e/J	.	.	.
8r	.	8r	.	8r	.	16r	.	16r	.
!	!	!	!	!	!	!	!LO:DY:a:t=for&colon;	!	!
.	.	.	.	.	.	16B/	f	16b\	in
=82	=82	=82	=82	=82	=82	=82	=82	=82	=82
!LO:N:vis=1	!	!LO:N:vis=1	!	!	!	!	!	!	!
4.r	.	4.r	.	8r	.	8e/	.	8e/	hym-
.	.	.	.	8r	.	4a/	.	4a\	-nis
!	!	!	!	!	!LO:DY:a:t=for&colon;	!	!	!	!
.	.	.	.	16r	f	.	.	.	.
.	.	.	.	16B/	.	.	.	.	.
=83	=83	=83	=83	=83	=83	=83	=83	=83	=83
.	.	.	.	.	.	8qa/	.	8qa/	.
!	!	!	!	!	!	!	!LO:DY:a:t=pia&colon;	!	!
8r	.	8r	.	8e/	.	8g#/	p	8g#\	et
8r	.	8r	.	4cc#\	.	4cc#\	.	4cc#\	.
8AA/	.	16r	.	.	.	.	.	.	.
.	.	16A/	.	.	.	.	.	.	.
=84	=84	=84	=84	=84	=84	=84	=84	=84	=84
!	!	!	!LO:DY:b:rj:t=fort&colon;	!	!LO:DY:a:t=pia&colon;	!	!	!	!
8E\L	.	8e\L	f	8g#/L	p	8b\L	.	8b\L	Can-
8F#\	.	8f#\	.	8a/	.	8dd#X\	.	8dd#X\	.
8G#\J	.	8g#\J	.	8b/J	.	8ee\J	.	8ee\J	.
=85	=85	=85	=85	=85	=85	=85	=85	=85	=85
!LO:TX:a:t=P:problem=mixed beam	!	!LO:TX:a:t=P:problem=mixed beam	!	!	!	!	!	!LO:TUP:b	!
8A\L	.	8a\L	.	8a/L	.	8a/L	.	24g#/LL	.
.	.	.	.	.	.	.	.	24f#/	.
.	.	.	.	.	.	.	.	24e/JJ	.
8B\	.	8b\	.	8b/	.	8b/	.	8.f#T/	.
8BB/J	.	8B/J	.	8B/J	.	8B/J	.	.	.
.	.	.	.	.	.	.	.	16f#/	-ti-
=86	=86	=86	=86	=86	=86	=86	=86	=86	=86
!	!LO:DY:a:t=forte.	!	!	!	!	!	!LO:DY:b:t=forte.	!	!
8E\L	f	16e\LL	.	16e/LL	.	16e/LL	f	4e/	-cis,
.	.	16g#\J	.	16b/JJ	.	16b/JJ	.	.	.
!	!	!	!	!	!LO:DY:b:t=forte.	!	!	!	!
8E\	.	8g#t\	.	8b/L	f	8bT/L	.	.	.
8E\J	.	8g#t\J	.	8b/J	.	8bT/J	.	8r	.
=87	=87	=87	=87	=87	=87	=87	=87	=87	=87
!	!	!	!	!	!	!	!	!LO:N:vis=00	!
4.D#X\	.	8f#\L	.	32b\LLL	.	32b\LLL	.	1.r	.
.	.	.	.	(32cc#\	.	(32cc#\	.	.	.
.	.	.	.	32dd#X\)	.	32dd#X\)	.	.	.
.	.	.	.	32ee\JJJ	.	32ee\JJJ	.	.	.
.	.	8f#\	.	32ff#\LLL	.	32ff#\LLL	.	.	.
.	.	.	.	32ee\	.	32ee\	.	.	.
.	.	.	.	(32dd#\	.	(32dd#\	.	.	.
.	.	.	.	32cc#\JJJ)	.	32cc#\JJJ)	.	.	.
.	.	8f#\J	.	32b/LLL	.	(32b/LLL	.	.	.
.	.	.	.	(32a/	.	32a/	.	.	.
.	.	.	.	32g#/)	.	32g#/)	.	.	.
.	.	.	.	32f#/JJJ	.	32f#/JJJ	.	.	.
=88	=88	=88	=88	=88	=88	=88	=88	=88	=88
4E\	.	8B/	.	8g#\L	.	8g#\L	.	.	.
.	.	4c#\	.	8ff#\	.	8ff#\	.	.	.
8GG#/	.	.	.	8ee\J	.	8ee\J	.	.	.
!LO:LB:g=original	!	!	!	!	!	!	!	!	!
=89	=89	=89	=89	=89	=89	=89	=89	=89	=89
*	*	*	*	*Xtuplet	*	*	*	*	*
8BB/L	.	8B\L	.	24dd#X\LL	.	24dd#X\LL	.	.	.
.	.	.	.	24cc#\	.	24cc#\	.	.	.
.	.	.	.	24b\JJ	.	24b\J	.	.	.
!	!	!LO:N:vis=8.g#	!	!	!	!	!	!	!
8BB/J	.	8g#\J	.	8b\	.	8b\J	.	.	.
8r	.	8r	.	8r	.	16r	.	.	.
.	.	.	.	.	.	16b\	.	.	.
=90	=90	=90	=90	=90	=90	=90	=90	=90	=90
!LO:N:vis=1	!	!LO:N:vis=1	!	!	!	!	!LO:DY:b:rj:t=pia&colon;	!	!
4.r	.	4.r	.	8r	.	8ee\	p	.	.
.	.	.	.	8r	.	4aa\	.	.	.
.	.	.	.	16r	.	.	.	.	.
!	!	!	!	!	!LO:DY:a:t=pia&colon;	!	!	!	!
.	.	.	.	16b\	p	.	.	.	.
=91	=91	=91	=91	=91	=91	=91	=91	=91	=91
.	.	.	.	.	.	8qaa/	.	.	.
!	!	!	!	!	!	!	!	!LO:N:vis=00	!
8r	.	8r	.	8ee\	.	8gg#\	.	1.r	.
8r	.	8r	.	4aa\	.	4ccc#\	.	.	.
8AA/	.	16r	.	.	.	.	.	.	.
!	!	!	!LO:DY:b:t=pia&colon;	!	!	!	!	!	!
.	.	16A/	p	.	.	.	.	.	.
=92	=92	=92	=92	=92	=92	=92	=92	=92	=92
!	!	!	!	!	!	!	!LO:DY:b:t=for&colon;	!	!
8E\L	.	8e\L	.	8gg#\L	.	8bb\L	f	.	.
8F#\	.	8f#\	.	8ff#\	.	8aa\	.	.	.
8G#\J	.	8g#\J	.	8ee\J	.	8gg#\J	.	.	.
=93	=93	=93	=93	=93	=93	=93	=93	=93	=93
!LO:TX:a:t=P:problem=mixed beam	!	!LO:TX:a:t=P:problem=mixed beam	!	!	!	!	!	!	!
8c#\L	.	8cc#\L	.	8ff#\L	.	8aa\L	.	.	.
!	!	!	!LO:DY:b:t=for&colon;	!	!	!	!	!	!
8B\	.	8b\	f	8ee\	.	8gg#\	.	.	.
8BB/J	.	8B/J	.	8dd#X\J	.	8ff#\J	.	.	.
=94	=94	=94	=94	=94	=94	=94	=94	=94	=94
!LO:TX:a:t=P:problem=mixed beam	!	!LO:TX:a:t=P:problem=mixed beam	!	!	!LO:DY:b:t=fort&colon;	!	!	!	!
8E\L	.	8e\L	.	16.gg#\LL	f	16.gg#\LL	.	.	.
!	!	!	!	!LO:N:vis=32ff#	!	!LO:N:vis=32ff#	!	!	!
.	.	.	.	64ff#\LL	.	64ff#\LL	.	.	.
!	!	!	!	!LO:N:vis=32ee	!	!LO:N:vis=32ee	!	!	!
.	.	.	.	64ee\JJJJ	.	64ee\JJJJ	.	.	.
8B\	.	8b\	.	8ee\L	.	8gg#\L	.	.	.
8BB/J	.	8B/J	.	8dd#X\J	.	8ff#\J	.	.	.
!	!	!	!	!	!	!LO:LB:g=original	!	!	!
=95	=95	=95	=95	=95	=95	=95	=95	=95	=95
4.E;;\	.	4.e;;\	.	8ee\	.	8ee\	.	4.r;;	.
.	.	.	.	4e;;/	.	4e;;/	.	.	.
!LO:LB:g=original	!	!	!	!	!	!	!	!	!
=96||	=96||	=96||	=96||	=96||	=96||	=96||	=96||	=96||	=96||
!	!LO:DY:b	!	!LO:DY:a	!	!LO:DY:a	!	!LO:DY:a:t=piano.	!	!
4.A\	p	4.e\	p	8a\L	p	8a\L	p	8a\L	Quan-
.	.	.	.	8b\	.	8b\	.	8b\	.
.	.	.	.	8cc#\J	.	8cc#\J	.	8cc#\J	.
!	!	!LO:LB:g=original	!	!	!	!	!	!	!
=97	=97	=97	=97	=97	=97	=97	=97	=97	=97
8G#\L	.	8g#\L	.	8g#/L	.	8b\L	.	8b\L	-tum
8F#\	.	8f#\	.	8a/	.	8cc#\	.	8cc#\	.
8E\J	.	8e\J	.	8b/J	.	8dd\J	.	8dd\J	.
!	!	!	!	!LO:LB:g=original	!	!	!	!	!
=98	=98	=98	=98	=98	=98	=98	=98	=98	=98
*	*	*	*	*	*	*Xtuplet	*	*	*
!LO:TX:a:t=P:problem=mixed beam	!	!	!	!	!	!	!	!	!
8A\L	.	8e\L	.	8a/L	.	24cc#\LL	.	24cc#\LL	po-
.	.	.	.	.	.	24b\	.	24b\	.
.	.	.	.	.	.	24a\JJ	.	24a\JJ	.
8AA/	.	8e\	.	8a/	.	8a\L	.	4a\	-tes.
8AA/J	.	8e\J	.	8a/J	.	8cc#\J	.	.	.
=99	=99	=99	=99	=99	=99	=99	=99	=99	=99
4AA/	.	8e\	.	8cc#\L	.	8ee\L	.	8ee\L	Tan-
.	.	8r	.	8b\	.	8dd\	.	8dd\J	.
8r	.	8r	.	8a\J	.	8cc#\J	.	8cc#\	-tum
!LO:LB:g=original	!	!	!	!	!	!	!	!	!
=100	=100	=100	=100	=100	=100	=100	=100	=100	=100
8D\L	.	8d\L	.	8f#/L	.	8cc#\L	.	16b\LL	Tan-
.	.	.	.	.	.	.	.	16dd\JJ	.
8D#X\	.	8d#X\	.	8f#/	.	8b\	.	8b\	.
8D#\J	.	8d#\J	.	8f#/J	.	8a\J	.	8a\	-tum
=101	=101	=101	=101	=101	=101	=101	=101	=101	=101
!	!	!LO:SIC:v:o=8A\L	!	!	!	!	!	!	!
8E\L	.	8B	.	8e/L	.	8g#/L	.	16g#/LL	au-
.	.	.	.	.	.	.	.	16f#/JJ	.
8E\	.	8e\	.	8g#/J	.	8b/J	.	8e/	-de
8E\J	.	8e\J	.	8r	.	16r	.	16r	.
.	.	.	.	.	.	16a/	.	16a\	qui-
=102	=102	=102	=102	=102	=102	=102	=102	=102	=102
4.E\	.	[<4.e\	.	4.r	.	8.a/L	.	8.a\L	.
.	.	.	.	.	.	16g#/K	.	16g#\Jk	.
!	!	!	!	!	!	!	!	!LO:N:vis=16b	!
.	.	.	.	.	.	8b/J	.	8b\	-a
=103	=103	=103	=103	=103	=103	=103	=103	=103	=103
4.E\	.	4.e\]	.	8r	.	8.b\L	.	8.b\L	ma-
.	.	.	.	8r	.	.	.	.	.
.	.	.	.	.	.	16a\K	.	16a\Jk	.
.	.	.	.	16r	.	8cc#\J	.	8cc#\	-jor
.	.	.	.	16a/	.	.	.	.	.
=104	=104	=104	=104	=104	=104	=104	=104	=104	=104
8E\L	.	8e\L	.	8a/L	.	8cc#\L	.	8cc#\L	om-
8E\	.	8e\	.	8g#/	.	8b\	.	8b\J	.
8E\J	.	8e\J	.	8g#/J	.	8ee\J	.	8ee\	-ni
!	!	!	!	!	!	!	!	!LO:LB:g=original	!
=105	=105	=105	=105	=105	=105	=105	=105	=105	=105
8BB\L	.	8B\L	.	8g#/L	.	8dd#X\L	.	24dd#X\LL	Lau-
.	.	.	.	.	.	.	.	24cc#\	.
.	.	.	.	.	.	.	.	24b\JJ	.
8F#\	.	8g#\	.	8b/	.	8ddn\	.	4ddn\	.
8E\J	.	8e\J	.	8g#/J	.	8dd\J	.	.	.
=106	=106	=106	=106	=106	=106	=106	=106	=106	=106
8A\L	.	8e\L	.	8a/L	.	8cc#\L	.	24cc#\LL	-da-
.	.	.	.	.	.	.	.	24b\	.
.	.	.	.	.	.	.	.	24a\JJ	.
8F#\	.	8f#\	.	8f#/	.	8ccn\	.	4ccn\	.
8D#X\J	.	8a\J	.	8f#/J	.	8cc\J	.	.	.
=107	=107	=107	=107	=107	=107	=107	=107	=107	=107
.	.	.	.	.	.	.	.	8qcc#/	.
8E\L	.	8e\L	.	8g#/L	.	8b\L	.	4b\	-re
8E\	.	8e\	.	8g#/	.	8b\	.	.	.
8D\J	.	8e\J	.	8g#/J	.	8b\J	.	8r	.
=108	=108	=108	=108	=108	=108	=108	=108	=108	=108
4C#/	.	4c#/	.	4e/	.	8a\L	.	8e/L	nec
.	.	.	.	.	.	8a\	.	8a/J	.
8D\	.	8A/	.	8f#/	.	8dd\J	.	8dd\	Lau-
=109	=109	=109	=109	=109	=109	=109	=109	=109	=109
4E\	.	4e\	.	8a/L	.	8cc#\L	.	24cc#\LL	-da-
.	.	.	.	.	.	.	.	24b\	.
.	.	.	.	.	.	.	.	24a\JJ	.
.	.	.	.	8a/	.	8b\	.	4b\	.
8EE/	.	8e\	.	8g#X/J	.	8b\J	.	.	.
=110	=110	=110	=110	=110	=110	=110	=110	=110	=110
4AA/	.	4c#\	.	4a/	.	8a/L	.	8a/L	.
.	.	.	.	.	.	8e/	.	8e/	.
8r	.	8r	.	8r	.	8f#/J	.	8f#/J	.
!LO:LB:g=original	!	!	!	!	!	!	!	!	!
=111	=111	=111	=111	=111	=111	=111	=111	=111	=111
8r	.	8r	.	8r	.	4.gn/	.	4.gn\	.
8BB/L	.	8B/L	.	8d/L	.	.	.	.	.
8C#/J	.	8c#/J	.	8e/J	.	.	.	.	.
=112	=112	=112	=112	=112	=112	=112	=112	=112	=112
4D\	.	4d\	.	4f#/	.	8f#/L	.	8f#/L	.
.	.	.	.	.	.	8f#/	.	8f#/	.
8r	.	8r	.	8r	.	8g#X/J	.	8g#X/J	.
!	!	!	!	!	!	!LO:LB:g=original	!	!	!
=113	=113	=113	=113	=113	=113	=113	=113	=113	=113
8r	.	8r	.	8r	.	4.a/	.	4.a\	.
8C#\L	.	8c#\L	.	8e/L	.	.	.	.	.
8D#X\J	.	8d#X\J	.	8f#/J	.	.	.	.	.
=114	=114	=114	=114	=114	=114	=114	=114	=114	=114
8E\L	.	8B/L	.	16e/LL	.	16g#X\LL	.	4g#X/	-re
.	.	.	.	16g#X/	.	16b\	.	.	.
8E\	.	8B/	.	16b/	.	16ee\	.	.	.
.	.	.	.	16g#/	.	16b\	.	.	.
8E\J	.	8B/J	.	16e/	.	16g#\	.	8r	.
.	.	.	.	16c#/JJ	.	16e\JJ	.	.	.
=115	=115	=115	=115	=115	=115	=115	=115	=115	=115
4E\	.	8e\L	.	16g#/LL	.	16b\LL	.	16b\LL	nec
.	.	.	.	32a/L	.	32cc#\L	.	32cc#\L	.
.	.	.	.	32b/JJJ	.	32dd\JJJ	.	32dd\JJJ	.
.	.	8e\	.	8a/L	.	8cc#\L	.	8cc#\	.
8E\	.	8e\J	.	8g#/J	.	8b\J	.	8b\	Lau-
!	!	!LO:LB:g=original	!	!	!	!	!	!	!
=116	=116	=116	=116	=116	=116	=116	=116	=116	=116
!LO:TX:a:t=P:problem=mixed beam	!	!	!	!	!	!	!	!	!
8AA/L	.	8e\L	.	8a/L	.	8cc#\L	.	8cc#\L	.
16G#\L	.	8e\	.	8g#/	.	8b\	.	8b\	.
16F#\	.	.	.	.	.	.	.	.	.
16G#\	.	8g#\J	.	8b/J	.	8ee\J	.	8ee\J	-da-
16E\JJ	.	.	.	.	.	.	.	.	.
!	!	!	!	!LO:LB:g=original	!	!	!	!	!
=117	=117	=117	=117	=117	=117	=117	=117	=117	=117
8F#\L	.	8e\L	.	8a/L	.	8cc#\L	.	8a\L	-re
8E\	.	8e\	.	8g#/	.	8b\	.	8g#\	.
8E\J	.	8e\J	.	8g#/J	.	8b\J	.	8g#\J	.
=118	=118	=118	=118	=118	=118	=118	=118	=118	=118
*	*	*	*	*	*	*	*	*	*ij
8D\L	.	4.d\	.	4.ff#\	.	4.ff#\	.	4.ff#\	nec
8E\	.	.	.	.	.	.	.	.	.
16F#\L	.	.	.	.	.	.	.	.	.
16E\JJ	.	.	.	.	.	.	.	.	.
!LO:LB:g=original	!	!	!	!	!	!	!	!	!
=119	=119	=119	=119	=119	=119	=119	=119	=119	=119
8D\L	.	8d\L	.	8f#/L	.	8f#/L	.	8f#/	Lau-
8E\	.	8d\	.	8g#/	.	8g#/	.	8g#\	-da-
8C#\J	.	8e\J	.	8a/J	.	8a/J	.	8a\	-re
*	*	*	*	*	*	*	*	*	*Xij
=120	=120	=120	=120	=120	=120	=120	=120	=120	=120
*	*	*	*	*tuplet	*	*tuplet	*	*	*
!LO:TX:a:t=P:problem=mixed beam	!	!	!	!	!	!	!	!	!
8D\L	.	8f#\	.	24dd\LL	.	24dd\LL	.	24dd\LL	Suf-
.	.	.	.	24cc#\	.	24cc#\	.	24cc#\	.
.	.	.	.	24b\JJ	.	24b\JJ	.	24b\JJ	.
8E\	.	4e\	.	4bT\	.	4bT\	.	8.b\	.
8EE/J	.	.	.	.	.	.	.	.	.
.	.	.	.	.	.	.	.	16a\	-fi-
=121	=121	=121	=121	=121	=121	=121	=121	=121	=121
4.AA/	.	4A/	.	4a/	.	4a/	.	4.a\	-cit.
!	!	!	!	!LO:TX:a:t=i2i.	!	!	!	!	!
!LO:TX:b:t=Da Capo.	!	!LO:TX:b:t=Da Capo.	!	!LO:TX:b:t=Da Capo.	!	!LO:TX:b:t=Da Capo.	!	!LO:TX:b:t=Da Capo.	!
.	.	8r	.	8r	.	8r	.	.	.
!LO:TX:a:t=i2i.	!	!LO:TX:a:t=i2i.	!	!	!	!LO:TX:a:t=i2i	!	!LO:TX:a:t=i2i	!
==	==	==	==	==	==	==	==	==	==
*-	*-	*-	*-	*-	*-	*-	*-	*-	*-
!!!system-decoration: s1[g1]s5
!!!RDF**kern: < = below
!!!RDF**dynam: p = "piano"
!!!RDF**dynam: f = "forte"
!!!ENC: Marta Lawrence
!!!END: 2020-11-13
!!!ENC: Kamil Watkowski
!!!END: 2020-06-06
